X: 11
P: Longways for as many as will
M: 6/4
L: 1/8
K: G
[|\
g2f2e2 d2c2B2 | c4d2 e4a2 | (f3e/f/)g2 A4 B2 | A6 G4 |]
g3ag2 f3ed2 | A4B2 c4a2 | (f3e/f/)g2 A4B2 | A6 G4 |]

